webapp/src/assets/icons/cloudproviders/aws/containers/registry.svg

<svg width="48" height="48" xmlns="http://www.w3.org/2000/svg"><path d="M35.207 37.954h2v-3.495h-2v3.495Zm-3.496 0h2v-3.495h-2v3.495Zm-3.495 0h2v-3.495h-2v3.495Zm-1.495 1.622h11.981v-6.739H26.721v6.739Zm12.981-8.739H25.72a1 1 0 0 0-1 1v8.739a1 1 0 0 0 1 1h13.982a1 1 0 0 0 1-1v-8.739a1 1 0 0 0-1-1Zm-4.495-5.116h2v-3.496h-2v3.496Zm-3.496 0h2v-3.496h-2v3.496Zm-3.495 0h2v-3.496h-2v3.496Zm-1.495 1.621h11.981v-6.738H26.721v6.738Zm12.981-8.738H25.72a1 1 0 0 0-1 1v8.738a1 1 0 0 0 1 1h13.982a1 1 0 0 0 1-1v-8.738a1 1 0 0 0-1-1Zm-4.495-5.118h2V9.991h-2v3.495Zm-3.496 0h2V9.991h-2v3.495Zm-3.495 0h2V9.991h-2v3.495Zm-1.495 1.622h11.981V8.369H26.721v6.739Zm12.981-8.739H25.72a1 1 0 0 0-1 1v8.739a1 1 0 0 0 1 1h13.982a1 1 0 0 0 1-1V7.369a1 1 0 0 0-1-1ZM17.729 37.954h2v-3.495h-2v3.495Zm-3.495 0h2v-3.495h-2v3.495Zm-3.496 0h2v-3.495h-2v3.495Zm-1.495 1.622h11.981v-6.739H9.243v6.739Zm12.981-8.739H8.243a1 1 0 0 0-1 1v8.739a1 1 0 0 0 1 1h13.981a1 1 0 0 0 1-1v-8.739a1 1 0 0 0-1-1Zm-4.495-5.116h2v-3.496h-2v3.496Zm-3.495 0h2v-3.496h-2v3.496Zm-3.496 0h2v-3.496h-2v3.496Zm-1.495 1.621h11.981v-6.738H9.243v6.738Zm12.981-8.738H8.243a1 1 0 0 0-1 1v8.738a1 1 0 0 0 1 1h13.981a1 1 0 0 0 1-1v-8.738a1 1 0 0 0-1-1Zm-4.495-5.118h2V9.991h-2v3.495Zm-3.495 0h2V9.991h-2v3.495Zm-3.496 0h2V9.991h-2v3.495Zm-1.495 1.622h11.981V8.369H9.243v6.739Zm12.981-8.739H8.243a1 1 0 0 0-1 1v8.739a1 1 0 0 0 1 1h13.981a1 1 0 0 0 1-1V7.369a1 1 0 0 0-1-1Zm21.721 33.128a4.453 4.453 0 0 1-4.448 4.448H8.448A4.453 4.453 0 0 1 4 39.497V8.448A4.453 4.453 0 0 1 8.448 4h31.049a4.453 4.453 0 0 1 4.448 4.448v31.049ZM39.497 2H8.448A6.455 6.455 0 0 0 2 8.448v31.049a6.455 6.455 0 0 0 6.448 6.448h31.049a6.455 6.455 0 0 0 6.448-6.448V8.448A6.455 6.455 0 0 0 39.497 2Z" fill="#ED7100" fill-rule="evenodd"/></svg>

<?xml version="1.0" encoding="UTF-8"?>
<svg width="48px" height="48px" viewBox="0 0 48 48" version="1.1" xmlns="http://www.w3.org/2000/svg" xmlns:xlink="http://www.w3.org/1999/xlink">
    <title>Icon-Resource/Containers/Res_Amazon-Elastic-Container-Registry_Registry_48</title>
    <g id="Icon-Resource/Containers/Res_Amazon-Elastic-Container-Registry_Registry_48" stroke="none" stroke-width="1" fill="none" fill-rule="evenodd">
        <path d="M35.207,37.954 L37.207,37.954 L37.207,34.459 L35.207,34.459 L35.207,37.954 Z M31.711,37.954 L33.711,37.954 L33.711,34.459 L31.711,34.459 L31.711,37.954 Z M28.216,37.954 L30.216,37.954 L30.216,34.459 L28.216,34.459 L28.216,37.954 Z M26.721,39.576 L38.702,39.576 L38.702,32.837 L26.721,32.837 L26.721,39.576 Z M39.702,30.837 L25.72,30.837 C25.168,30.837 24.72,31.284 24.72,31.837 L24.72,40.576 C24.72,41.129 25.168,41.576 25.72,41.576 L39.702,41.576 C40.255,41.576 40.702,41.129 40.702,40.576 L40.702,31.837 C40.702,31.284 40.255,30.837 39.702,30.837 L39.702,30.837 Z M35.207,25.721 L37.207,25.721 L37.207,22.225 L35.207,22.225 L35.207,25.721 Z M31.711,25.721 L33.711,25.721 L33.711,22.225 L31.711,22.225 L31.711,25.721 Z M28.216,25.721 L30.216,25.721 L30.216,22.225 L28.216,22.225 L28.216,25.721 Z M26.721,27.342 L38.702,27.342 L38.702,20.604 L26.721,20.604 L26.721,27.342 Z M39.702,18.604 L25.72,18.604 C25.168,18.604 24.72,19.051 24.72,19.604 L24.72,28.342 C24.72,28.895 25.168,29.342 25.72,29.342 L39.702,29.342 C40.255,29.342 40.702,28.895 40.702,28.342 L40.702,19.604 C40.702,19.051 40.255,18.604 39.702,18.604 L39.702,18.604 Z M35.207,13.486 L37.207,13.486 L37.207,9.991 L35.207,9.991 L35.207,13.486 Z M31.711,13.486 L33.711,13.486 L33.711,9.991 L31.711,9.991 L31.711,13.486 Z M28.216,13.486 L30.216,13.486 L30.216,9.991 L28.216,9.991 L28.216,13.486 Z M26.721,15.108 L38.702,15.108 L38.702,8.369 L26.721,8.369 L26.721,15.108 Z M39.702,6.369 L25.72,6.369 C25.168,6.369 24.72,6.817 24.72,7.369 L24.72,16.108 C24.72,16.661 25.168,17.108 25.72,17.108 L39.702,17.108 C40.255,17.108 40.702,16.661 40.702,16.108 L40.702,7.369 C40.702,6.817 40.255,6.369 39.702,6.369 L39.702,6.369 Z M17.729,37.954 L19.729,37.954 L19.729,34.459 L17.729,34.459 L17.729,37.954 Z M14.234,37.954 L16.234,37.954 L16.234,34.459 L14.234,34.459 L14.234,37.954 Z M10.738,37.954 L12.738,37.954 L12.738,34.459 L10.738,34.459 L10.738,37.954 Z M9.243,39.576 L21.224,39.576 L21.224,32.837 L9.243,32.837 L9.243,39.576 Z M22.224,30.837 L8.243,30.837 C7.69,30.837 7.243,31.284 7.243,31.837 L7.243,40.576 C7.243,41.129 7.69,41.576 8.243,41.576 L22.224,41.576 C22.777,41.576 23.224,41.129 23.224,40.576 L23.224,31.837 C23.224,31.284 22.777,30.837 22.224,30.837 L22.224,30.837 Z M17.729,25.721 L19.729,25.721 L19.729,22.225 L17.729,22.225 L17.729,25.721 Z M14.234,25.721 L16.234,25.721 L16.234,22.225 L14.234,22.225 L14.234,25.721 Z M10.738,25.721 L12.738,25.721 L12.738,22.225 L10.738,22.225 L10.738,25.721 Z M9.243,27.342 L21.224,27.342 L21.224,20.604 L9.243,20.604 L9.243,27.342 Z M22.224,18.604 L8.243,18.604 C7.69,18.604 7.243,19.051 7.243,19.604 L7.243,28.342 C7.243,28.895 7.69,29.342 8.243,29.342 L22.224,29.342 C22.777,29.342 23.224,28.895 23.224,28.342 L23.224,19.604 C23.224,19.051 22.777,18.604 22.224,18.604 L22.224,18.604 Z M17.729,13.486 L19.729,13.486 L19.729,9.991 L17.729,9.991 L17.729,13.486 Z M14.234,13.486 L16.234,13.486 L16.234,9.991 L14.234,9.991 L14.234,13.486 Z M10.738,13.486 L12.738,13.486 L12.738,9.991 L10.738,9.991 L10.738,13.486 Z M9.243,15.108 L21.224,15.108 L21.224,8.369 L9.243,8.369 L9.243,15.108 Z M22.224,6.369 L8.243,6.369 C7.69,6.369 7.243,6.817 7.243,7.369 L7.243,16.108 C7.243,16.661 7.69,17.108 8.243,17.108 L22.224,17.108 C22.777,17.108 23.224,16.661 23.224,16.108 L23.224,7.369 C23.224,6.817 22.777,6.369 22.224,6.369 L22.224,6.369 Z M43.945,39.497 C43.945,41.95 41.95,43.945 39.497,43.945 L8.448,43.945 C5.995,43.945 4,41.95 4,39.497 L4,8.448 C4,5.995 5.995,4 8.448,4 L39.497,4 C41.95,4 43.945,5.995 43.945,8.448 L43.945,39.497 Z M39.497,2 L8.448,2 C4.892,2 2,4.893 2,8.448 L2,39.497 C2,43.053 4.892,45.945 8.448,45.945 L39.497,45.945 C43.053,45.945 45.945,43.053 45.945,39.497 L45.945,8.448 C45.945,4.893 43.053,2 39.497,2 L39.497,2 Z" id="Amazon-Elastic-Container-Registry-Registry_Resource-Icon_light-bg" fill="#ED7100"></path>
    </g>
</svg>
